flashlight.svg

<svg fill="currentColor" viewBox="0 0 24 24"><path d="M9 10 6 5h12l-3 5zm9-6H6V2h12zM9 22V11h6v11zm3-9a1 1 0 0 0-1 1 1 1 0 0 0 1 1 1 1 0 0 0 1-1 1 1 0 0 0-1-1"/></svg>

<svg  viewBox="0 0 24 24" fill="currentColor"><path  d="M9,10L6,5H18L15,10H9M18,4H6V2H18V4M9,22V11H15V22H9M12,13A1,1 0 0,0 11,14A1,1 0 0,0 12,15A1,1 0 0,0 13,14A1,1 0 0,0 12,13Z"/></svg>
